X:1
T:James Gibb editions
T:Transeunte Domino - Caldara
T:#
%%score [ 1 2 ] { ( 3 4 ) | 5 }
L:1/8
Q:1/4=72
M:4/4
K:Bb
V:1 treble nm="Alto" snm="A"
V:2 treble-8 nm="Tenor" snm="T"
V:3 treble nm="Organ"
V:4 treble 
V:5 bass 
V:1
"^andante""^Transeunte Domino""^Antonio Caldara\n(1670 -1736)" z8 | z8 | z8 | z8 | z8 | z4 z2 F2- | %6
w: |||||Trans\-|
 FF =E (F/G/) A>G FA | G C2 F GA B2 | A2 z A (G/F/G- G/c/A/G/ | F/=E/F- F/G/F/_E/ DF/A/ B2- | %10
w: * e- un- te * Do- mi- no cla-|ma- bat, cla- ma- bat coe-|cus, cla- ma\- * * * * * *||
 BA/G/ F3) (E/D/) C2 | B,4 z2 z A | (G/^F/G- G/B/A/G/ !courtesy!^F2) F2 | z2 G3 G ^F (G/A/) | %14
w: * * * * bat * coe-|cus, cla-|ma\- * * * * * * * bat,|trans- e- un- te *|
 B>A GB A D2 A | (G/^F/G- G/=F/E/D/ CA ^F=E/D/ | G>=F _E/D/C/B,/ A,^F G2- | %17
w: Do- mi- no cla- ma- bat, cla-|ma\- * * * * * * * * * * *||
 GA/B/ cA/G/ ^F) (G/A/) F2 | GG (_E2- E/E/F/G/ FE | D/D/E/F/ ED C2) C2 | z8 | z2 F3 F =E (F/G/) | %22
w: * * * * * * * bat * coe-|cus, cla- ma\- * * * * * *|* * * * * * * bat,||trans- e- un- te *|
 A>G FA (D=E/F/ G2- | GF/G/ EF/G/ F3 E/F/ | D3 G/F/ =E2 F2- |"^adagio"[Q:1/4=65] F2) (=ED) E4 | %26
w: Do- mi- no cla- ma\- * * *|||* bat * coe\--|
 !fermata!F8 ||[M:3/2] x12 |[M:3/2]"^largo"[Q:1/4=140] z12 | z12 | z12 | F4 B,8 | (G4 F4) E4 | %33
w: cus:|||||Je- su|Fi\- * li|
 (D6 C2) B,4 | z4 F4 A4 | (G4 c4 G2 A2 | B6 c2) (A2 G2) | %37
w: Da\- * vid,|mi- se-|re\- * * *|* * re *|
[Q:1/4=140][Q:1/4=140][Q:1/4=140] (A4 G8) | F4 F4 E4 | (D6 E2 F4- | F4 E4 D4 | C12- | %42
w: me\- *|i, mi- se-|re\- * *|||
 C4 B,2 A,2) B,4 | A,12 | G,4 G4 D4 | (B4 A4) G4 | (^F6 =E2) D4 | z12 | z12 | z4 D4 =E4 | %50
w: * * * re|me\--|i, Je- su|Fi\- * li|Da\- * vid,|||mi- se-|
 (F6 G2 _E2 D2 | E12) | D4 G4 C4 | (_A4 G4) F4 | (E6 D2) C4 | z12 | z4 z4 G4- | G4 (F2 E2) F4- | %58
w: re\- * * *||e, Je- su|Fi\- * li|Da\- * vid,||mi\-|* se\- * re\-|
 F4 B,4 (E4- | E4 D8) | E4 E4 G4 | (F4 B4 F2 G2 | _A6 B2 G2 F2 | G4) =A8 | (B6 c2 _A2 G2 | %65
w: * re me\-||i, mi- se-|re\- * * *||* re|me\- * * *|
 _A2 G2 F2 E2 D2 C2 | =B,8 C4- | C4 =B,8) | C4 C4 E4 | (D4 G4 D2 E2 | F6 G2 E2 D2 | =E4) ^F8 | %72
w: |||i, mi- se-|re\- * * *||* re|
 (G8 ^F4) | G8 z4 | z12 | z4 C4 D4 | (E4 F2 E2 D2 C2 | D3 C) B,4 z4 | z12 | F4 B,8 | (G4 F4) E4 | %81
w: me\- *|i,||mi- se-|re\- * * * *|* * re,||Je- su|Fi\- * li|
 D4 D4 G4- | G4 (F2 E2) (F4- | F4 E2 D2 E4- | E4 D4) C4 | (D4 C8) | B,8 z4 | z4 F4 A4 | %88
w: Da- vid, mi\-|* se\- * re\-||* * re|me\- *|i,|mi- se-|
 (G4 c4 G2 A2 | B6 c2 _A2 G2 | _A6 B2 G2 F2 | G4) =A8 | (B12- | B4 A8) | B4 G4 E4 | C8 C4 | (C12- | %97
w: re\- * * *|||* re|me\-||i, mi- se-|re- re|me\-|
[Q:1/4=136] C8[Q:1/4=130] D4- |[Q:1/4=127] D4[Q:1/4=121] C8) |[Q:1/4=118] !fermata!B,12 |] %100
w: ||i.|
V:2
 z2 B3 B A (B/c/) | d>c Bd c F2 B | cd e2 d2 z d | (c/B/c- c/f/d/c/ B/A/B- B/d/c/B/ | %4
w: Trans- e- un- te *|Do- mi- no cla- ma- bat, cla-|ma- bat coe- cus, cla-|ma\- * * * * * * * * * * * * *|
 Ac/=e/ f3 e/d/ c2- | c) (B/A/) G2 F4 | z8 | z8 | z8 | z8 | z8 | z2 z d (c/B/c- c/e/d/c/ | %12
w: |* bat * coe- cus,||||||cla- ma\- * * * * * *|
 B/A/B- B/d/c/B/ A2) A2 | z8 | z2 G3 G ^F (G/A/) | B>A GB A D2 d | (c/B/c- c/B/A/G/ ^Fd BA/G/ | %17
w: * * * * * * * * bat,||trans- e- un- te *|Do- mi- no cla- ma- bat, cla-|ma\- * * * * * * * * * * *|
 c4- c/d/) B/c/ A2 | G2 z c (A2- A/A/B/c/ | B/B/c/d/ cB A2) A2 | z2 B3 B A (B/c/) | %21
w: * * * bat * coe-|cus, cla- ma\- * * * *|* * * * * * * bat,|trans- e- un- te *|
 d>c Bd (GA/B/ c2- | cB/c/ AB/c/ B3 A/B/ | GA/B/ cB AB c2- | cF B4) (AG/F/) | B8 | !fermata!A8 || %27
w: Do- mi- no cla- ma\- * * *|||* * * bat * *|coe-|cus:|
[M:3/2] x12 |[M:3/2][K:treble-8] B4 F8 | (d4 c4) B4 | (A6 G2) F4 | z12 | z12 | z4 B4 d4 | %34
w: |Je- su|Fi\- * li|Da\- * vid,|||mi- se-|
 (c4 f4 c2 d2 | e6 f2 d2 c2 | d4) =e8 | (f8 =e4) | f8 z4 | z4 B4 _A4 | (G6 =A2 B4- | B4 A4 G4 | %42
w: re\- * * *||* re|me\- *|i,|mi- se-|re\- * *||
 ^F8) G4- | G4 ^F8 | G8 z4 | z12 | x12 | d4 G8 | (e4 d4) c4 | (B6 A2) G4 | z4 A4 =B4 | %51
w: * re|* me-|i,|||Je- su|Fi\- * li|Da\- * vid,|mi- se-|
 (c6 d2 =B2 A2 | =B2 A2) G4 z4 | z12 | c4 G8 | (e4 d4) c4 | (=B6 A2) G4 | _A8 G2 F2 | (G6 _A2) B4 | %59
w: re\- * * *|* * re,||Je- su|Fi\- * li|Da\- * vid,|mi- se\- *|re\- * re|
 _A12 | G8 z4 | z4 B4 d4 | (c4 f4 c2 d2 | e6 f2 d2 c2 | d4 =e8 | (f12- | f4 _e2 d2 e4 | d12) | %68
w: me-|i,|mi- se-|re\- * * *||* re|me\-|||
 c8 z4 | z4 G4 B4 | A4 d4 A2 =B2 | c6 d2) (_B2 A2) | (B4 A8) | G4 G4 A4 | (B4 c2 B2 A2 G2 | %75
w: i,|mi- se-|re\- * * *|* * re *|me\- *|i, mi- se-|re\- * * * *|
 A2 G2) F4 z4 | z12 | B4 F8 | (d4 c4) B4 | A4 B8 | z4 z4 c4- | c4 (B2 A2) (B4 | c8 B2 A2 | %83
w: * * re,||Je- su|Fi\- * li|Da- vid,|mi\-|* se\- * re\-||
 B8 A2 G2 | A12) | B4 A8 | B4 B4 d4 | (c4 f4 c2 d2 | e6 f2 d2 c2 | d4) =e8 | (f4 c4 d4 | %91
w: ||re me-|i, mi- se-|re\- * * *||* re|me\- * *|
 _e6 f2 d2 c2 | d2 c2 B2 g2 f2 e2 | d4 c8) | B12- | B4 B4 B4 | B8 B4 | (A8 B4- | B4 A8) | %99
w: |||i,|* mi- se-|re- re|me\- *||
 !fermata!B12 |] %100
w: i.|
V:3
"^andante" DEFD GE C>E | DEFB A2 Bd | f d2 c- cB/A/ Bd | c3 d B3 c | A3 B/c/ d2 c>B | %5
 A G2 B A2 cA | B2- B/d/c/B/ A>B cf | =e2 fA dc B2 | AB c>d _e2 cA | fe/d/ cA dcBA | %10
 GABc dc/B/ BA | B3 d c3 d | B3 e A3 B/A/ | d3 B c3 A | Bc d>B A3 c | BcdB cA ^F2 | %16
 G>=F E2 D>C B,E | C>D EA ^FG F2 | G2- G/A/B/c/ A>B cA | BF G2 C2 F2- | F3 E/D/ E3 D/C/ | %21
 DEFB G3 B | AB c2 BA G2 | cd e2- e/d/c/d/ c2- | cB/A/ B/A/G/F/ =E2 F2- |"^adagio" FD=EF GA B2 | %26
 !fermata![CFA]8 ||[M:3/2] x12 |[M:3/2]"^largo" [DFB]8 [CFc]4 | [B,DF]4 [CFA]4 [DGB]4 | %30
 [Ac]8 [Bd]2 [ce]2 | f6 e2 d4- | d2 c4 B4 A2 | [DFB]12 | [CFA]12 | c12 | d6 c4 B2 | A4 G8 | %38
 A4 B4 c4 | [DF]8 [B,_A]4- | [B,G]8 D4 | [CE]12- | [CE]4 [CD]4 =E4 | A,8 D2 C2 | B,6 C2 D4- | %45
 D4 E2 F2 G4 | ^F6 G2 A4 | B6 c2 d4 | G2 A2 B4 c4 | d6 c2 B4 | A8 =B4 | [Ec]12 | [DG=B]8 [CG]4 | %53
 d12 | [EGc]8 [EG]4- | [EG]4 [DG]4 [Ec]4 | [G=Bd]8 c4- | [_Ac]8 [A_B]4 | [GB]12 | _A12 | [B,EG]12 | %61
 [A,DF]12 | [F_A]12 | G4 [F=A]8 | B8 _A2 G2 | [CF_A]12 | [=B,FG]8- [CEG]4 | [C_A]4 G4 F4 | [CE]12 | %69
 D8- D2 E2 | [DF]12 | =E2 G2 [^Fc]8 | B4 A8 | B8 A4 | [B,CG]12 | [A,F]12 | _E4 F8 | [DF]8 [CF]4- | %78
 [B,DF]4 [CFA]4 [DGB]4 | [Ac]4 B4 [Bd]4- | d2 c4 B2 [EAc]4- | c4 B2 A2 G4- | c4 F4 A4 | B4 E4 G4 | %84
 A4 D4 [CF]4- | F2 G2 F4 E4 | [F,B,D]12 | C8- C2 D2 | [G,CE]12 | F4 B4 _A2 G2 | [F_A]12 | G4 =A8 | %92
 B12- | B4 A8 | B4 G4 E4 | C12- | C4 D4 =E4 | F4 _E4 [B,D]4- | [B,D]4 [A,C]8 | %99
 !fermata![D,F,B,]12 |] %100
V:4
 F,2 B,4 A,2 | F,2 B,D C2 F2 | F2 E2 DE F>G | A2 FA D>=E FG | C2 F3 =EFG | CD =E2 FC F2- | %6
 FD =E2 F3 A | G2 F2 =EF- F/E/D/E/ | F3 A G3 A | B F2 F F2 DF | B,E F3 GC/D/E/F/ | DE F>G AC A2 | %12
 D3 G ^F4 | G^F G3 =E F2 | GD G3 ^F/=E/ D2- | D2 G2 ^FDA,D | C G,2 C ^F,2 G,2 | G,3 C2 B, A,2 | %18
 B,C/D/ E3 CFE | D2 C>B, A,>B,CB,/A,/ | B,A, B,3 A,/G,/ A,2 | B,F,B,D F=E/D/ EF/G/ | C2 DF D2 EF | %23
 G4 A2 FE | DEFD B,G, A,B,/C/ | B,2- [B,=E]6 | x8 ||[M:3/2] x12 |[M:3/2] x12 | x12 | F12 | F12 | %32
 G4 F4 E4 | x12 | x12 | [EG]8- [DG]2 [CA]2 | F4 =E8 | C12 | C12 | x4 x4 F4- | F4 E4 B,4- | %41
 B,4 A,4 G,4 | ^F,8 [G,B,]4- | G,4 ^F,8 | G,12- | G,4 C6 G,2 | A,8 D4- | D4 G6 F2 | %48
 E4 D2 G2 ^F2 A2 | B2 G2 D4 =E4 | F12 | G4 A8 | x4 x4 c4- | [Ac]4 [G=B]4- [FB]4 | x12 | x12 | %56
 x4 x4 G4- | G4 F8- | F4 E8- | [CE]4 [B,D]4- [_A,D]4 | x12 | x12 | C8- C2 D2 | E12 | %64
 [DF]4 [B,=E]8 | x12 | x12 | D12 | G,8- G,2 =A,2 | _B,12 | A,8- A,2 B,2 | C12 | [DG]8- [D^F]4 | %73
 [DG]4 B,8 | x12 | C8 D4 | B,4 C4 D2 E2 | x12 | x12 | F12 | [EG]4 [DF]4 x4 | [DF]8- [DG]4 | %82
 [CG]4 [CF]8 | [B,F]4 [B,E]8 | [A,E]4 A,8 | [B,D]4 [A,C]8 | x12 | A,12 | x12 | [B,D]4- [B,=E]8 | %90
 C8- C2 D2 | _E12 | [DF]6 G2 F2 E2 | [DF]4- [CF]4 [CE]4 | [B,D]8- B,4 | [G,B,]12- | [G,B,]12 | %97
 [F,A,]8- F,4 | F,4 x8 | x12 |] %100
V:5
 B,,C,D,B,, E,C,F,F,, | B,,C,D,B,, F,E,D,B,, | A,,B,,G,,A,, B,,C,D,B,, | F,F,A,F, G,G,D,=E, | %4
w: * * * * 6 * * *||* * 6 * * * * *|* * * * * * 6 *|
w: * * * * 5 * * *||||
w: ||||
 F,=E,D,A,, B,,G,A,E, | F,B,, C,C,, F,,F,A,F, | G,A,/B,/ CC, F,G,A,F, | CB,A,D B,A,G,C, | %8
w: * * * 6 * 6 * *||7 * * 7 * * * * *|7 * * * 6 6 7 7|
w: ||||
w: ||||
 F,G,A,F, CCEC | DC/B,/ A,F, B,A,G,D, | E,C,D,A,, B,,E, F,F,, | B,,C,D,B,, F,A,^F,F, | %12
w: * * * * * * 6 6|6 * * * * * * * *|* 6 6 * * * * *|* * * * * * * 6|
w: |||* * * * * * * 5|
w: ||||
 G,G,, G,C, D,E,D,C, | B,,A,,B,,G,, A,,B,,/C,/ D,D, | G,A,B,G, D,D,^F,D, | %15
w: |* * * * 7 * * 7 *|* * * * 5 * * *|
w: |||
w: |||
 G,,A,,B,,G,, A,,^F,,D,,D,, | E,,E,/D,/ C,2 D,D, E,2- | E,D, C,2 D,G,,D,D,, | %18
w: |6 * * * * * 5|* * 5~~~~~~6 7 * * *|
w: |||
w: |||
 G,,A,,/B,,/ C,D,/E,/ F,F,A,"^7"F, | B,B,, E,=E, F,G,A,F, | D,C,D,B,, C,D,/=E,/ F,F,, | %21
w: * * * * * * 7 * * 7|* * 6 5 * * * *|6 * * * 7 * * 7 *|
w: |||
w: |||
 B,,C,D,B,, C,3 D,/=E,/ | F,G,A,F, G,F, _E,2- | E,D, C,D,/E,/ F,G,A,F, | B,,C,D,B,, C,2 F,,2 | %25
w: * * * * 5~~~~3 * *|||10 * * 6 7 *|
w: * * * * 4 * *|||9 * * * * *|
w: ||||
 G,,8 | !fermata!F,,8 ||[M:3/2] x12 |[M:3/2] B,,8 A,,4 | B,,4 A,,4 G,,4 | F,,4 F,6 E,2 | %31
w: 7~~~~~~~~6||||||
w: ||||||
w: ||||||
 D,6 C,2 B,,4 | E,4 D,4 C,4 | B,,12 | F,12 | C,12 | B,,4 G,,8 | F,,4 C,4 C,,4 | F,,4 G,,4 A,,4 | %39
w: |||||* 6|* 4 *|* * 6|
w: ||||||||
w: ||||||||
 B,,6 C,2 D,4 | E,6 F,2 G,4 | A,,6 B,,2 C,4 | D,8 ^C,4- | C,4 D,8 | G,,6 A,,2 B,,4- | %45
w: * * 5|9 * *|10 * *|7 7|6 *||
w: ||9~~~~~~~8 * *||5 *||
w: ||||||
 B,,4 C,2 D,2 E,4 | D,6 =E,2 ^F,4 | G,6 A,2 B,4 | C4 B,4 A,4 | G,12 | F,12 | C,4 ^F,,8 | G,,8 E,4 | %53
w: ||||5~~~~~~~~~~~~~~~~~~~~~~~~6|~~~~~~~~~~~~~~~~~~~~~~6|* 7|* 6|
w: |||||~~~~~~~~~~~~~~~~~~~~~~4|||
w: ||||||||
 F,4 G,4 G,,4 | C,12 | C4 B,4 _A,4 | G,8 E,4 | F,8 D,4 | E,6 F,2 G,4 | F,12 | E,12 | B,,12 | F,12 | %63
w: * * 7||||9 *|9 * *|7~~~~6||||
w: ||||||||||
w: ||||||||||
 E,4 F,8 | B,4 G,8 | F,12 | G,8 C,4 | F,4 G,4 G,,4 | C,12 | G,12 | D,12 | C,4 A,,8 | %72
w: |* 6||7 *||||5~~~~~~~~~~~~~~~~~~~~~~~~6|* 6|
w: * 7||||6 * *|||||
w: ||||5 * *|||||
 G,,4 D,4 D,,4 | G,,4 G,4 F,4 | =E,12 | F,12 | G,4 A,4 A,,4 | B,,8 A,,4 | B,,4 A,,4 G,,4 | %79
w: * 4 3||6|5~~~~~~~~~~~~~~~~~~6||||
w: ||5|||||
w: |||||||
 F,,4 D,4 B,,4 | E,4 F,4 F,,4 | B,,12 | A,,12 | G,,12 | F,,12 | B,,4 F,4 F,,4 | B,,12 | F,12 | %88
w: |||||7||||
w: |||||||||
w: |||||||||
 C,12 | B,,4 G,8 | F,12 | E,4 C,8 | B,,6 E,2 D,2 C,2 | B,,4 F,4 F,,4 | G,,12 | =E,,12- | %96
w: |* 6|5~~~~~~~~~~~~~~~~~6|* 6|||||
w: ||||||||
w: ||||||||
 E,,4 D,,4 C,,4 | F,,12- | F,,12 | !fermata!B,,12 |] %100
w: ||||
w: ||||
w: ||||

